packages/bezier-icons/icons/help.svg

<svg width="24" height="24" viewBox="0 0 24 24" fill="none" xmlns="http://www.w3.org/2000/svg">
<path fill-rule="evenodd" clip-rule="evenodd" d="M21.9999 11.9998C21.9999 17.5227 17.5225 21.9998 11.9999 21.9998C6.47662 21.9998 1.99991 17.5231 1.99991 11.9998C1.99991 6.4765 6.47662 1.99979 11.9999 1.99979C17.5225 1.99979 21.9999 6.47683 21.9999 11.9998ZM19.9999 11.9998C19.9999 7.58143 16.418 3.99979 11.9999 3.99979C7.58119 3.99979 3.99991 7.58107 3.99991 11.9998C3.99991 16.4185 7.58119 19.9998 11.9999 19.9998C16.418 19.9998 19.9999 16.4181 19.9999 11.9998ZM10.9332 14.4922H12.834V13.7839C12.834 13.0655 13.3822 12.6413 13.6184 12.4923C14.4507 11.969 15.8433 11.0907 15.8433 9.43692C15.8433 7.49605 14.1556 5.97537 12.0016 5.97537C9.9187 5.97537 8.15991 7.56108 8.15991 9.43692H10.0608C10.0608 8.60555 10.9672 7.87622 12.0016 7.87622C12.942 7.87622 13.9425 8.42347 13.9425 9.43692C13.9425 9.94515 13.4723 10.3383 12.6049 10.8846C11.5584 11.5449 10.9332 12.6283 10.9332 13.7839V14.4922ZM11.9445 18.1236C12.6318 18.1236 13.188 17.5674 13.188 16.8801C13.188 16.1928 12.6318 15.6365 11.9445 15.6365C11.2582 15.6365 10.7009 16.1928 10.7009 16.8801C10.7009 17.5674 11.2582 18.1236 11.9445 18.1236Z" fill="#313234"/>
</svg>

<svg xmlns="http://www.w3.org/2000/svg" width="24" height="24" fill="none" viewBox="0 0 24 24"><path fill="#313234" fill-rule="evenodd" d="M22 12c0 5.523-4.477 10-10 10S2 17.523 2 12 6.477 2 12 2s10 4.477 10 10m-2 0a8 8 0 1 0-16 0 8 8 0 0 0 16 0m-9.067 2.492h1.901v-.708c0-.719.548-1.143.784-1.292.833-.523 2.225-1.401 2.225-3.055 0-1.94-1.687-3.462-3.841-3.462-2.083 0-3.842 1.586-3.842 3.462h1.9c0-.831.907-1.56 1.942-1.56.94 0 1.94.546 1.94 1.56 0 .508-.47.901-1.337 1.448-1.047.66-1.672 1.743-1.672 2.899zm1.011 3.632a1.243 1.243 0 1 0 .002-2.486 1.243 1.243 0 0 0-.002 2.486" clip-rule="evenodd"/></svg>
